X:1
T:SIX IRISH FOLKSONGS
T:
T:No. 2.   WHAT THE BEE IS TO THE FLOW'RET
T:(Air.-"The yellow garron")
T:(Op. 78)
T:Charles Villiers Stanford (1852-1924)
T:Thomas Moore (1779-1852)
T:SIX IRISH FOLKSONGS No. 2.   WHAT THE BEE IS TO THE FLOW'RET (Air.-"The yellow garron") (Op. 78)
T:Copyright © CPDL
T:Copyright © CPDL
T:Copyright © CPDL
T:Copyright © CPDL
T:Copyright © CPDL
C:Charles Villiers Stanford (1852-1924)
Z:Thomas Moore (1779-1852)
Z:Copyright © CPDL
%%score [ ( 1 2 ) 3 4 ( 5 6 ) ]
L:1/8
Q:1/4=100
M:6/8
K:Eb
V:1 treble nm="Soprano" snm="S."
V:2 treble 
V:3 treble nm="Alto" snm="A."
V:4 treble-8 transpose=-12 nm="Tenor" snm="T."
V:5 bass nm="Bass" snm="B."
V:6 bass 
V:1
"^Allegretto" z6 | z6 | z6 | z6 | z6 | z6 | z6 | z2 z z2!mf! e | (BG)E E2 G | (F>G)F F2 (G/F/) | %10
w: |||||||And|what * the bank, with|ver- * dure glow- ing, *|
 E2 E E2 G |"^poco rall." (FG)B (Bc/d/!fermata!e) |!p! (BG)E E2 G | (F>!<(!G)F (F!<)!c)d | %14
w: Is to waves that|wan- * der near, _ _ _|Whis- * p'ring kiss- es|while * they're go- * ing,|
!f! e (c/d/e) (Bc)G | (FG)B"^dim." B3- | B6- | B6- | !fermata!B6 ||!mf! B2 c (_dc)B | %20
w: That I'll _ _ be _ to|* you, my dear.|_|||But they say * the|
 c/=d/ed (cB)G | z Bc (_dc) (B/G/) | x2 e!<(! (e2!<)! f) | (gf)g e2 x |!>(! (c/d/e)d (c!>)!B)G | %25
w: bee's _ _ a rov- * er,|That he'll fly _ when *|||kiss _ _ is o- * ver,|
 (ec/d/)e (Bc)G | (FG)B B3- | B6- | B2 A A3- | A2 G G2 E |!<(! B6-!<)! | B2 (c d2)!f! .e | %32
w: Faith- * * less brooks * will|wan- * der on,|_|* will wan-|* der, wan- der|on,|_ Well, * well,|
 (BG)E E2 G | (F>G)"^dim."F (Fc)d | e (c/d/e) (Bc)G |!p! (FG)B B3- | B3 B3- | B3 B3 | %38
w: 'tis _ but right that|bees _ and brooks * should|sip and _ _ kiss _ them|while _ they may,|_ while|_ they|
 !fermata!B6 || %39
w: may.|
V:2
 x6 | x6 | x6 | x6 | x6 | x6 | x6 | x6 | x6 | x6 | x6 | x6 | x6 | x6 | x6 | x6 | x6 | x6 | x6 || %19
w: |||||||||||||||||||
 x6 | x6 | x6 | (Bc)c (cB=d) | d2 d e2 B | x6 | x6 | x6 | x6 | x6 | x6 | x6 | x6 | x6 | x6 | x6 | %35
w: |||sweets * are gone; _ _|And when once the||||||||||||
 x6 | x6 | x6 | x6 || %39
w: ||||
V:3
 z6 | z6 | z6 | z6 | z6 | z6 | z6 | z6 | z!mf! B,G, (G,B,)E | (D>E)D (DC)D | (EB,)E E2 E | %11
w: ||||||||What the bank, * with|ver- * dure glow- * ing,|Is _ to waves that|
"^poco rall." (DE)D (DF!fermata!E) | z6 |!p! (FC)!<(!F F2!<)! F |!f! E3 (A2 G) | z2 G (FG)E | %16
w: wan- * der near, _ _||Whis- * p'ring kiss- es,|That, that _|I'll be, _ I'll|
 (DE)G"^dim." G3- | G3 F3 | !fermata!E6 ||!mf! G2 A (BA)G | (A/B/c)B (AG)E | G2 A (FA)G | %22
w: be _ to you,|_ my|dear.|But they say * the|bee's _ _ a rov- * er,|That he'll fly _ when|
 (GA)A!<(! (AG!<)!B) | BAB [GB]2 [EG] |!>(! ([EG][CE])[DF] ([EG]!>)![DF])E | %25
w: sweets * are gone; _ _|And * when once the|kiss _ is o- * ver,|
 [CG]2 [CG] ([DF][EG])E | (DE)B, B,3- | B,6- | B,2 B, B,3- | B,2 B, B,2 B, | B,2 E!<)!!<(! F3- | %31
w: Faith- less brooks * will|wan- * der on,|_|* will wan-|* der, wan- der,|wan- der on,|
 F2 B- B2!f! .B | z6 | (FC)"^dim."F F2 F | E z E A2 G | z2!p! G (FG)E | (DE)G G3- | G3 F3 | %38
w: _ Well, * well,||Bees * and brooks should|sip and kiss them,|should sip _ and|kiss _ them while|_ they|
 !fermata!E6 || %39
w: may.|
V:4
!mf! B2 c (_dc)B | (c/=d/e)d (cB)G | B2 c (_dc) (B/G/) |!<(! (Bc)e (e2!<)! f) | %4
w: What the bee * is|to _ _ the flow'r- * et,|When he looks * for *|ho- * ney dew _|
 ([eg][cf])[dg] e2 B | (c/d/e)!>(!!>(!d (cB)G | e!>)!!>)! (c/d/e) (Bc)G | (FG)B B3- | B6- | %9
w: Thro' * the leaves that|close _ _ em- bow'r * it,|That, my _ _ love, * I'll|be _ to you,|_|
 B2 B A3- | A2 G G2 E | !fermata!B6 | z2 z!p!!p! (cB)G | c2!<(! c c2!<)! =B |!f! c3 (f2 e) | %15
w: * my love,|_ I'll be to|you,|Whis- * p'ring,|whis- p'ring kiss- es,|That, that _|
 z2 e (de)B | (AB)e"^dim." e3- | e3 d3 | !fermata!B6 || z6 | z6 | z6 | z6 | z6 | z6 | z6 | %26
w: I'll be, _ I'll|be _ to you,|_ my|dear.||||||||
 z2 z z2!mf! e | (BG)E (GB)e | (d>e)d d2 (c/d/) | e2 B (GB)e | (de)c!<)!!<(! d3- | d2 (e f2)!f! e | %32
w: Nay,|nay, * if flow'rs * will|lose * their looks, if *|sun- ny banks * will|wear * a- way,|_ Well, * well,|
 z2 B (cB)G | c2"^dim." c c2 =B | c z c f2 e | z2!p! e (de)B | (AB)e e3- | e3 d3 | !fermata!B6 || %39
w: Nay, 'tis _ but|right that bees should|sip and kiss them,|should sip _ and|kiss _ them while|_ they|may.|
V:5
!mf! G,2 A, (B,A,)G, | (A,/B,/C)B, (A,G,)E, | [E,G,]2 A, [F,A,]2 [G,B,] | %3
w: What the bee * is|to _ _ the flow'r- * et,|When he looks for|
!<(! (G,A,)[G,B,] [G,B,-]2!<)! B, | (B,A,)B, [G,B,]2 G, | (A,/B,/C)B, (A,G,)E, | %6
w: ho- * ney dew _|Thro' * the leaves that|close _ _ em- bow'r * it,|
 [C,G,]2 [C,G,] (G,A,)E, | (D,E,)B,,!p! B,,3- | B,,6- | B,,2 B,, B,,3- | B,,2 B,, B,,3- | %11
w: That, my * * I'll|be _ to you,|_|* my love,|_ I'll be|
"^poco rall." B,,2 B, (B,A,!fermata!G,) | z2 z (A,G,)E, | A,2!<(! A, A,2!<)! G, |!f! C,3 (D,2 E,) | %15
w: _ to you, _ _|Whis- * p'ring,|whis- p'ring kiss- es,|That, that _|
 z2 z z2 G, | (F,G,)E,"^dim." [B,,B,]3- | [B,,B,]3 [B,,A,]3 | !fermata![E,G,]6 || z6 | z6 | z6 | %22
w: I'll|be _ to you,|_ my|dear.||||
 z6 | z6 | z6 | z6 | z2 z z2!mf! G, | (G,E,)E, E,2 G, | (F,>G,)F, F,2 (G,/F,/) | (E,B,,)E, E,2 G, | %30
w: ||||Nay,|nay, * if flow'rs will|lose * their looks, if *|sun- * ny banks will|
 (F,G,)B,!<)!!<(! B,3- | B,2 (B, A,2)!f! .G, | z2 G, (A,G,)E, | A,2"^dim." A, A,2 G, | %34
w: wear * a- way,|_ Well, * well,|Nay, 'tis _ but|right that bees should|
 C z C, D,2 E, | z2 z z2!p! G, | (F,G,)E, B,3- | B,3 A,3 | !fermata![E,G,]6 || %39
w: sip and kiss them,|should|kiss _ them *|* they|may.|
V:6
 x6 | x6 | x6 | x6 | x6 | x6 | x3 E,2 x | x6 | x6 | x6 | x6 | x6 | x6 | x6 | x6 | x6 | x6 | x6 | %18
w: ||||||love,||||||||||||
 x6 || x6 | x6 | x6 | x6 | x6 | x6 | x6 | x6 | x6 | x6 | x6 | x6 | x6 | x6 | x6 | x6 | x6 | %36
w: ||||||||||||||||||
 x3 B,,3- | B,,3 x3 | x6 || %39
w: while|||

